X:1
T:Anton Bruckner (1824-1896)
T:Pange lingua
T:Copyright © 2008 by the Choral Public Domain Library (http://www.cpdl.org) Edition may be freely distributed, duplicated, performed, or recorded.
Z:Copyright © 2008 by the Choral Public Domain Library (http://www.cpdl.org)
Z:Edition may be freely distributed, duplicated, performed, or recorded.
%%score 1 2 3 4
L:1/8
Q:1/4=120
M:2/2
K:D
V:1 treble nm="P1"
V:2 treble nm="P2"
V:3 treble nm="P3"
V:4 bass nm="P4"
V:1
!p! F4 G4 |!<(! G4 (F2 A2)!<)! |!>(! B6 A2 | (A2 G2) F4!>)! |!<(! F6 c2 | (d2 c2) (B2 A2)!<)! | %6
w: Pan- ge|lin- gua *|glo- ri-|o- * si|Cor- po-|ris * my- *|
!>(! (A2 G2) F4!>)! | E4 z4 |!p! F6 F2 |!<(! G4 F4 | B6 c2 | c2 d2 c4!<)! |!f! f4 F4 | %13
w: ste- * ri-|um,|San- gui-|nis- que|pre- ti-|o- * si,|quem in|
 (F2 e2) (e2 d2) |!>(! (d2 c2) (B2 ^A2)!>)! | B4 z4 |!p! B6!<(! A2 | (G2 A2) F4!<)! |!f! d6 c2 | %19
w: mun- * di: *|pre- * ti- *|um|fruc- tus|ven- * tris|ge- ne-|
!>(! (B2 c2) A4!>)! | B4 G4 | A4!<(! F4 | (F2 E2)!<)!!>(! (D2 E2) | D4!>)! z4 |!pp! (D4 G4) | F8 |] %26
w: ro- * si|Rex ef-|fu- dit|gen- * ti- *|um.|A- *|men.|
V:2
!p! D4 D4 |!<(! E4 D4!<)! |!>(! D6 D2 | (C2 E2) D4!>)! |!<(! (C4 E2) E2 | D4 (E2 F2)!<)! | %6
w: Pan- ge|lin- gua|glo- ri-|o- * si|Cor- * po-|ris my- *|
!>(! C4 D4!>)! | C4 z4 |!p! D6 D2 |!<(! E4 D4 | F6 F2 | F4 F4!<)! |!f! F4 F4 | F4 F4 | %14
w: ste- ri-|um,|San- gui-|nis- que|pre- ti-|o- si,|quem in|mun- di:|
!>(! F2 E2 D2 C2!>)! | D4 z4 |!p! D4 E4 |!<(! D4!<)! D4 |!f! B6 A2 |!>(! G2 A2 F4!>)! | F4 E4 | %21
w: pre- * ti- *|um|fru- ctus|ven- tris|ge- ne-|ro- * si|Rex ef-|
 E4 D4 | B,4 A,4 | A,4 z4 |!pp! (B,4 D4) | D8 |] %26
w: fu- dit|gen- ti-|um.|A- *|men.|
V:3
!p! A4 A4 |!<(! A4 (A2 F2)!<)! |!>(! G6 F2 | (E2 A2) A4!>)! |!<(! ^A4 c4 | (B2 A2) (G2 F2)!<)! | %6
w: Pan- ge|lin- gua *|glo- ri-|o- * si|Cor- po-|ris * my- *|
!>(! A4 A4!>)! | A4 z4 |!p! A6 A2 |!<(! A4 A4 | F6 ^A2 | (^A2 B2) A4!<)! |!f! A4 (A2 F2) | %13
w: ste- ri-|um,|San- gui-|nis- que|pre- ti-|o- * si,|quem in *|
 (e2 c2) (c2 B2) |!>(! G4 F4!>)! | F4 z4 |!p! G4 G2!<(! =c2 | (B2 =c2)!<)! (A2 d2) |!f! d4 e4 | %19
w: mun- * di: *|pre- ti-|um|fru- ctus *|ven- * tris *|ge- ne-|
!>(! d4 d4!>)! | B4 B4 | A4 A4 | (A2 G2) (F2 G2) | F4 z4 |!pp! (G4 B4) | A8 |] %26
w: ro- si|Rex ef-|fu- dit|gen- * ti- *|um.|A- *|men.|
V:4
!p! D,4 D,4 | C,4 D,4 | G,,6 D,2 | A,,4 D,4 | F,4 ^A,,4 | B,,4 (C,2 D,2) | E,4 (F,2 G,2) | A,4 z4 | %8
w: Pan- ge|lin- gua|glo- ri-|o- si|Cor- po-|ris my- *|ste- ri- *|um,|
!p! D,4 D,4 |!<(! C,4 D,4 | D,6 C,2 | B,,4 F,4!<)! |!f! D,4 D,4 | (C,2 ^A,,2) B,,4 | %14
w: San- gui-|nis- que|pre- ti-|o- si,|quem in|mun- * di:|
!>(! E,4 F,4!>)! | B,,4 z4 |!p! B,,4 C,4 |!<(! D,4!<)! D,4 |!f! G,,4 C,4 |!>(! D,4 D,4!>)! | %20
w: pre- ti-|um|fru- ctus|ven- tris|ge- ne-|ro- si|
 ^D,4 E,4 | C,4 D,4 | G,,4 A,,4 | D,4 z4 |!pp! (G,,6 B,,2) | D,8 |] %26
w: Rex ef-|fu- dit|gen- ti-|um.|A- *|men.|

